X:75
T:Irish Reel
M:2/4
L:1/8
K:D
a/g/|fd dd|fga g/f/|eA AA|A/B/c/d/ e a/g/|fd dd|fg a2|
g/f/e/d/ c/d/e/g/|fdd::A/A/|df df|df g/f/e/d/|ce ce|ce a/g/f/e/|
df df|d/e/f/g/ a2|g/f/e/d/ c/d/e/g/|fdd:|
